src/key.svg

<svg width="24" height="24" viewBox="0 0 24 24" fill="none" xmlns="http://www.w3.org/2000/svg">
<path d="M21 18V21H18.031L17 20V18H15V16H13L8.99999 12L12.052 8.99999L21 18ZM9.99999 5.99999L7.99999 3.99999L5.00299 4.99999L3.99999 7.99999L5.99999 9.99999L9.99999 5.99999ZM5.78299 13.839L1.13199 9.18799L2.83399 2.83399L9.18799 1.13199L13.838 5.78199L12.136 12.136L5.78299 13.839V13.839Z" fill="black"/>
</svg>

<svg width="24" height="24" xmlns="http://www.w3.org/2000/svg" xmlns:xlink="http://www.w3.org/1999/xlink"><path d="M21 18v3h-2.969L17 20v-2h-2v-2h-2l-4-4 3.052-3L21 18zM10 6L8 4 5.003 5 4 8l2 2m-.217 3.839L1.132 9.188l1.702-6.354 6.354-1.702 4.65 4.65-1.702 6.354-6.353 1.703z" fill="currentColor" /></svg>
